X:120
T:Mary Blain. Le4.120
M:2/4
L:1/8
Q:1/4=100
B:L.Leadley MS#4 c1850
Z:Village Music Project, 2016 Ruairidh Greig
K:G
z4|z2zD|B B {c}c> B|B< A E G|F A c< F|
G3D|B B c> B|B A E> G|F A c> F|
G2zA|A d d> e|d< ^c/ c>z A|G B A G|
GF zA|A f e d|e d B d|^c A G E|
D3E|B B B B|(B/A/) (B/e/) d (G/A/)|
B B B (B/d/)|(e/d/) (d/c/) A> D|B B B B|c> d e (e/d/)|
d< B Hd/c/ A/HB/|HG3z|

